X:3
T:William and Nancy
T:New Mown Hay
T:Legacy, The
C:Trad.
A:Bledington          % from Bledington in Gloucestershire
B:Sussex Tune Book    % also in these books
B:Mally's Cotswold Morris vol.1 2
D:Morris On           % you can hear it on this record
P:(AB)2(AC)2A         % play the parts in this order
M:6/8
K:G
P:A                   % part A
D|"G"G2G GBd|"C"e2e "G"dBG|"D7"A2d "G"BAG|"C"E2"D7"F "G"G2:|
P:B                   % part B
d|"G"e2d B2d|"C"gfe "G"d2d| "G"e2d    B2d|"C"gfe    "D7"d2c|\
  "G"B2B Bcd|"C"e2e "G"dBG|"D7"A2d "G"BAG|"C"E2"D7"F "G"G2:|
T:Slows
M:4/4                 % change meter
L:1/4                 % and default note length
P:C                   % part C
"G"d2|"C"e2 "G"d2|B2 d2|"Em"gf "A7"e2|"D7"d2 "G"d2|"C"e2 "G"d2|\
M:3/8
L:1/8
"G"B2d|\
M:6/8
"C"gfe "D7"d2c|\
I:nobarcheck
  "G"B2B Bcd|"C"e2e "G"dBG|"D7"A2d "G"BAG|"C"E2"D7"F "G"G2:|

